src/assets/icons/media-reading-writing,fancy,pallette.svg

<svg width="48" height="48" viewBox="0 0 48 48" fill="none" xmlns="http://www.w3.org/2000/svg">
<path d="M32.9383 21.4104C33.0625 20.8555 33.6238 20.5157 34.173 20.6629L36.2435 21.2177C36.7927 21.3648 37.1089 21.9398 36.939 22.4824L29.9787 44.712C29.8021 45.2758 29.2123 45.6001 28.6416 45.4472C28.071 45.2943 27.7224 44.7185 27.8514 44.142L32.9383 21.4104Z" fill="black"/>
<rect opacity="0.4" x="34.4014" y="19.5688" width="2.19132" height="1.11584" transform="rotate(15 34.4014 19.5688)" fill="black"/>
<path d="M39.2389 9.98142C39.2389 9.98142 30.6863 15.3508 34.4606 19.6454L36.5028 20.1926C40.6239 19.108 39.2389 9.98142 39.2389 9.98142Z" fill="black"/>
<path opacity="0.4" fill-rule="evenodd" clip-rule="evenodd" d="M7.48499 33.4114C5.1732 29.4058 4.46076 24.9344 5.40491 20.3485C5.51004 19.8449 6.08351 17.9392 6.29446 17.3984C7.26878 14.8961 8.57413 12.7925 10.3269 10.891C14.282 6.60132 19.7609 4.4653 25.1313 5.11452C26.9612 5.33727 28.6803 5.88783 29.9641 6.66115C31.5516 7.61517 32.728 8.79424 33.6594 10.3512C34.2989 11.4193 34.7375 12.5836 34.9592 13.7723C33.5814 15.5315 32.7805 17.6531 34.3955 19.5694C34.3804 19.6268 34.3653 19.6846 34.35 19.7428C34.2602 20.0842 34.1813 20.384 34.1121 20.6484C33.5829 20.541 33.0581 20.8759 32.9385 21.4103L28.1983 42.592C28.1324 42.6052 28.0659 42.6183 27.9987 42.6313C26.4929 42.923 25.424 43.0167 23.9703 42.9976C22.2948 42.9693 21.026 42.7918 19.308 42.3429C18.0893 42.0285 17.6207 41.8736 16.648 41.4654C12.7621 39.8459 9.58209 37.0487 7.48499 33.4114ZM30.8709 41.8627C31.3835 41.6797 31.9026 41.4684 32.4601 41.2186C33.1373 40.9172 34.8045 39.9622 35.4581 39.5046C38.4501 37.4039 40.7029 34.6357 42.093 31.3461C42.5763 30.2075 43.0041 28.7868 43 28.3479C42.9914 27.6077 42.7863 26.9623 42.3846 26.4275C41.8954 25.7727 41.2258 25.3504 40.4163 25.1956C39.6399 25.0414 39.0853 25.1235 38.2303 25.5123C37.8505 25.6847 37.2503 25.8116 36.82 25.8046C36.593 25.803 36.2572 25.7401 35.9469 25.651L30.8709 41.8627ZM11.5455 23.1409C10.4149 23.1414 9.39054 23.6927 8.77435 24.6345C8.56939 24.9417 8.31179 25.7582 8.29941 26.1361C8.25331 27.393 8.99323 28.5877 10.1509 29.1092C10.5239 29.2796 11.2207 29.4211 11.5988 29.4064C12.7556 29.356 13.7386 28.7736 14.3096 27.7998C14.5444 27.399 14.7169 26.7711 14.7191 26.3095C14.7241 25.1716 14.0968 24.1117 13.084 23.547C12.6876 23.3258 11.9973 23.1455 11.5455 23.1409ZM14.5576 13.0709C13.2712 12.9577 12.0049 13.6485 11.4215 14.7731C11.2815 15.0406 11.0961 15.6854 11.0766 15.9681C10.9907 17.1579 11.6291 18.3139 12.6987 18.9137C13.0941 19.1387 13.7805 19.318 14.246 19.318C15.4126 19.3229 16.4993 18.7109 17.0783 17.7229C17.3132 17.3221 17.4857 16.6942 17.4878 16.2326C17.4926 15.1108 16.9399 14.1272 15.9639 13.5194C15.644 13.3223 14.968 13.1051 14.5576 13.0709ZM16.5547 31.7758C15.9017 32.1403 15.4812 32.5818 15.1886 33.2229C14.6757 34.3335 14.8876 35.6498 15.7256 36.5782C16.1336 37.0295 16.6562 37.3363 17.296 37.5035C18.7192 37.8754 20.1649 37.2882 20.925 36.0192C21.1326 35.6721 21.3348 34.906 21.3283 34.4908C21.3177 33.9245 21.2037 33.4771 20.941 33.0112C20.448 32.1282 19.5712 31.5221 18.5879 31.3949C17.8173 31.2949 17.2126 31.4085 16.5547 31.7758ZM25.0455 9.28414C23.6417 8.91732 22.1963 9.48832 21.4546 10.7054C21.2522 11.0336 21.0414 11.6799 21.0153 12.0622C20.9658 12.7264 21.1338 13.3703 21.5101 13.9673C22.1141 14.9157 23.2301 15.483 24.3724 15.4247C25.0001 15.3941 25.7489 15.1195 26.217 14.7472C27.6664 13.6016 27.8346 11.5373 26.5937 10.1995C26.1567 9.73262 25.6853 9.45134 25.0455 9.28414Z" fill="black"/>
<g opacity="0.8">
<path d="M11.545 23.141C10.4144 23.1415 9.39005 23.6928 8.77385 24.6345C8.56889 24.9418 8.31129 25.7583 8.29891 26.1362C8.25282 27.3931 8.99273 28.5878 10.1504 29.1092C10.5234 29.2797 11.2202 29.4212 11.5983 29.4065C12.7551 29.3561 13.7381 28.7737 14.3091 27.7999C14.5439 27.3991 14.7164 26.7712 14.7186 26.3095C14.7237 25.1716 14.0963 24.1117 13.0835 23.5471C12.6871 23.3259 11.9968 23.1456 11.545 23.141Z" fill="black"/>
<path d="M14.5571 13.0709C13.2707 12.9578 12.0044 13.6485 11.421 14.7732C11.281 15.0407 11.0956 15.6855 11.0761 15.9682C10.9902 17.158 11.6286 18.314 12.6982 18.9138C13.0936 19.1387 13.78 19.3181 14.2455 19.3181C15.4121 19.3229 16.4988 18.7109 17.0778 17.723C17.3127 17.3222 17.4852 16.6943 17.4873 16.2327C17.4921 15.1109 16.9394 14.1273 15.9634 13.5195C15.6435 13.3224 14.9675 13.1052 14.5571 13.0709Z" fill="black"/>
<path d="M16.5542 31.7759C15.9012 32.1404 15.4807 32.5819 15.1881 33.223C14.6752 34.3336 14.8871 35.6499 15.7251 36.5783C16.1331 37.0295 16.6557 37.3364 17.2955 37.5036C18.7187 37.8754 20.1644 37.2883 20.9245 36.0193C21.1321 35.6722 21.3343 34.9061 21.3279 34.4909C21.3172 33.9245 21.2032 33.4772 20.9405 33.0112C20.4475 32.1283 19.5708 31.5222 18.5874 31.395C17.8169 31.295 17.2121 31.4086 16.5542 31.7759Z" fill="black"/>
<path d="M25.045 9.28421C23.6412 8.91739 22.1958 9.48839 21.4541 10.7054C21.2517 11.0336 21.0409 11.6799 21.0148 12.0623C20.9653 12.7264 21.1333 13.3704 21.5096 13.9674C22.1136 14.9158 23.2296 15.483 24.3719 15.4248C24.9996 15.3942 25.7484 15.1196 26.2165 14.7473C27.6659 13.6016 27.8341 11.5374 26.5932 10.1996C26.1562 9.73269 25.6849 9.45141 25.045 9.28421Z" fill="black"/>
</g>
</svg>

<svg xmlns="http://www.w3.org/2000/svg" width="48" height="48" fill="none" viewBox="0 0 48 48">
  <path fill="#000" d="M32.938 21.41a1 1 0 011.235-.747l2.07.555a1 1 0 01.696 1.264l-6.96 22.23a1.102 1.102 0 01-2.127-.57l5.086-22.732z"/>
  <path fill="#000" d="M34.401 19.569l2.116.567-.289 1.078-2.116-.567z" opacity=".4"/>
  <path fill="#000" d="M39.239 9.981s-8.553 5.37-4.778 9.664l2.042.548c4.12-1.085 2.736-10.212 2.736-10.212z"/>
  <path fill="#000" fill-rule="evenodd" d="M7.485 33.411c-2.312-4.005-3.024-8.477-2.08-13.063.105-.503.679-2.409.89-2.95.974-2.502 2.28-4.605 4.032-6.507 3.955-4.29 9.434-6.426 14.804-5.776 1.83.222 3.55.773 4.833 1.546 1.588.954 2.764 2.133 3.695 3.69a10.382 10.382 0 011.3 3.421c-1.378 1.76-2.178 3.881-.564 5.797l-.045.174-.238.905a1 1 0 00-1.174.762l-4.74 21.182-.2.04c-1.505.291-2.574.385-4.028.366-1.675-.029-2.944-.206-4.662-.655-1.219-.315-1.687-.47-2.66-.878a18.903 18.903 0 01-9.163-8.054zm23.386 8.452a21.75 21.75 0 001.59-.644c.676-.302 2.343-1.257 2.997-1.714 2.992-2.101 5.245-4.87 6.635-8.159.483-1.139.911-2.56.907-2.998-.009-.74-.214-1.386-.615-1.92a3.138 3.138 0 00-1.969-1.232c-.776-.155-1.33-.073-2.186.316-.38.173-.98.3-1.41.293-.227-.002-.563-.065-.873-.154L30.87 41.863zM11.546 23.14a3.28 3.28 0 00-2.772 1.494c-.205.307-.462 1.123-.475 1.501a3.163 3.163 0 001.852 2.973c.373.17 1.07.312 1.448.297 1.157-.05 2.14-.632 2.71-1.606.235-.401.408-1.029.41-1.49a3.16 3.16 0 00-1.635-2.763c-.396-.221-1.087-.402-1.538-.406zm3.012-10.07c-1.287-.113-2.553.578-3.136 1.702-.14.268-.326.912-.345 1.195-.086 1.19.552 2.346 1.622 2.946.395.225 1.082.404 1.547.404a3.27 3.27 0 002.832-1.595c.235-.4.408-1.029.41-1.49.005-1.122-.548-2.106-1.524-2.714-.32-.197-.996-.414-1.406-.448zm1.997 18.705c-.653.364-1.074.806-1.366 1.447-.513 1.11-.301 2.427.537 3.355.408.451.93.758 1.57.925a3.227 3.227 0 003.629-1.484c.208-.347.41-1.113.403-1.528-.01-.566-.124-1.014-.387-1.48a3.185 3.185 0 00-2.353-1.616c-.77-.1-1.375.014-2.033.38zm8.49-22.492c-1.403-.367-2.849.204-3.59 1.421-.203.329-.414.975-.44 1.357-.05.664.119 1.308.495 1.905.604.949 1.72 1.516 2.862 1.458.628-.03 1.377-.306 1.845-.678 1.45-1.145 1.618-3.21.377-4.547a3.053 3.053 0 00-1.549-.916z" clip-rule="evenodd" opacity=".4"/>
  <g opacity=".8">
    <path fill="#000" d="M11.545 23.141a3.28 3.28 0 00-2.771 1.494c-.205.307-.463 1.123-.475 1.501a3.163 3.163 0 001.851 2.973c.373.17 1.07.312 1.448.297 1.157-.05 2.14-.632 2.711-1.606.235-.4.407-1.029.41-1.49a3.16 3.16 0 00-1.635-2.763c-.397-.221-1.087-.401-1.539-.406zM14.557 13.07c-1.286-.112-2.553.579-3.136 1.703-.14.268-.325.912-.345 1.195-.086 1.19.553 2.346 1.622 2.946.396.225 1.082.404 1.547.404a3.27 3.27 0 002.833-1.595c.235-.4.407-1.029.41-1.49.004-1.122-.549-2.106-1.525-2.713-.32-.198-.995-.415-1.406-.45zM16.554 31.776c-.653.364-1.073.806-1.366 1.447-.513 1.11-.3 2.427.537 3.355.408.451.93.758 1.57.926a3.227 3.227 0 003.63-1.485c.207-.347.41-1.113.403-1.528-.01-.566-.125-1.014-.387-1.48a3.185 3.185 0 00-2.354-1.616c-.77-.1-1.375.014-2.033.38zM25.045 9.284c-1.404-.367-2.85.204-3.59 1.421-.203.329-.414.975-.44 1.357-.05.664.118 1.308.495 1.905.604.949 1.72 1.516 2.862 1.458.628-.03 1.376-.305 1.845-.678 1.449-1.145 1.617-3.21.376-4.547a3.052 3.052 0 00-1.548-.916z"/>
  </g>
</svg>
